X:1065
T: Spare the Rod
S: B.Breathnach:"Ceol Rince na hEireann" IV/140 (gan ainm)
Z: B.Black
L: 1/8
M: 4/4
R: reel
K: G
BA|GEDG (3EGE DE|GEDB c2 Bc|A2 AB ABAG|EAAB c2 BA|
GEDG (3EGE DE|GEDB c2 BA|BcdB cBAB|GEDE G2 AB ||
c2 cB c2 eB|c2 eB cbAB|dedB dedB|dedB cBAB|
c2 cB c2 eB|c2 eB cbAB|dedB cBAB|GEDE G2 ||
